**kern
*clefF4
*k[]
*M4/4
=1
*^
2G	2C 2E
4.B	2GG 2D 2G
8c	.
*v	*v
=2
1C 1E 1G 1c
=3||
*^
*	*^
*	*	*^
2e	1G	2C\	2CC\
4.d	.	4.BB\	2GG\
8c	.	8C\	.
*v	*v	*v	*v
=4
1C 1C 1E 1c
=5||
*^
(2..E	1DD 1GG#X 1BB
8A)	.
*v	*v
=6
1CC 1AA 1E 1A
=7||
*^
2.E	1DD 1GG#X 1BB
4A	.
=8	=8
2B	1CC 1AA 1E
2A	.
=9||	=9||
*	*^
2E	2GG#X	1EE 1D
4c	4AA	.
4G#X	4BB	.
*v	*v	*v
!!linebreak:original
=10
1AA 1AA 1C 1A
=11||
*^
4r	1AA 1C 1E
2e	.
[4G#X	.
=12	=12
4G#]	2EE 2BB 2D
2A	.
.	4AA 4C
4r	4r
=13||	=13||
2G	1GG 1BB 1F
[2e	.
=14	=14
2e]	1AA 1C 1E
2c	.
=15||	=15||
2G	1GG 1BB 1F
2e	.
=16	=16
2d	1AA 1C 1E
2c	.
=17||	=17||
4c	2C 2E 2G
[4d	.
4d]	2BB 2D 2G
[4c	.
=18	=18
4c]	2C 2E 2G
4d	.
2B	2GG 2D 2G
=19||	=19||
2d	1GG 1BB 1F
2e	.
*v	*v
!!linebreak:original
=20
1C 1C 1E 1c
=21||
*^
2A 2d 2f	2DD
2G 2B 2d	2GG
=22	=22
*	*^
2B 2d#X	2.G	2CC/
4c 4e	.	2r
4r	4r	.
*	*v	*v
=23||	=23||
2A 2d 2f	4DD
.	2GG
2G 2B 2d	.
.	[4CC
=24	=24
4G 4c 4e	4CC]
4r	4r
2r	2r
*v	*v
==
*-
!!!system-decoration: [(s1
